!!!OTL: Ringeltanz
!!!ARE: Europa, Mitteleuropa, Deutschland
!!!SCT: A0286
!!!YEM: Copyright 1995, estate of Helmut Schaffrath.
**kern
*ICvox
*Ivox
*M3/2
*k[b-]
*F:
{2f
=1
1f
2f
=2
2.e
4f
2g
=3
2f
1d
=4
1c
2f
=5
2f
1d
=6
1c}
{2c
=7
1g
2g
=8
1a
2g
=9
2f
2e
2d
=10
1e
2r}
=11
{2c
2d
2e
=12
1f
2r
=13
2c
2d
2e
=14
1f}
==
!!!AGN: Romanze, Ballade, Lied
!! Geistliche Ringeltentze 1550 No. 1
!!!ONB: ESAC (Essen Associative Code) Database: ALTDEU
!!!AMT: simple triple
!!!AIN: vox
!!!EED: Helmut Schaffrath
!!!EEV: 1.0
*-
